src/configurations/digitalhealth/synapseConfigs/icons/Challenges.svg

<svg width="93" height="88" viewBox="0 0 93 88" fill="none" xmlns="http://www.w3.org/2000/svg">
<path d="M62.1703 27.2362C62.0976 27.9037 62.4347 28.5429 63.0183 28.8637C63.6023 29.1804 64.3207 29.1093 64.8328 28.6857C66.2751 27.5295 67.527 26.1468 68.5414 24.5946C69.0507 23.7981 69.4983 22.9621 69.8829 22.0988C71.376 18.687 71.7658 14.8926 70.9976 11.2482C70.7961 10.329 70.527 9.42758 70.1899 8.5482C69.8795 7.68815 68.9343 7.24732 68.0799 7.56124C67.2256 7.87513 66.7865 8.82794 67.0969 9.68804C67.3727 10.4038 67.5927 11.1427 67.7582 11.8926C68.3828 14.8554 68.0662 17.9367 66.8523 20.7105C66.537 21.4193 66.1713 22.0981 65.7549 22.7509C64.9429 24.0132 63.9393 25.14 62.7813 26.0894C62.4316 26.3723 62.2084 26.7841 62.1703 27.2357L62.1703 27.2362Z" fill="black"/>
<path d="M78.9768 2C78.6495 16.0628 74.8867 28.6631 69.0614 37.8171C62.9462 47.4268 54.744 53 46 53C37.256 53 29.0538 47.4268 22.9386 37.8171C17.1133 28.6631 13.3505 16.0628 13.0232 2H78.9768Z" stroke="black" stroke-width="4"/>
<path d="M78.5 9.5C84.1806 9.5 89.5 12 90 18.5C90.5 25 82.3265 40.0005 68 40" stroke="black" stroke-width="4"/>
<path d="M13.5215 10C7.84084 10 2.52149 12.5 2.02149 19C1.52148 25.5 9.69495 40.5005 24.0215 40.5" stroke="black" stroke-width="4"/>
<path d="M52 54L52 72L40 72L40 54.0001L52 54Z" stroke="black" stroke-width="4"/>
<path d="M58.5 79.5L33.5 79.5L33.5 72.5L58.4998 72.5L58.5 79.5Z" stroke="black" stroke-width="3"/>
<path d="M61.9999 86L30 86L30 80L61.9998 80L61.9999 86Z" stroke="black" stroke-width="4"/>
</svg>

<?xml version="1.0" encoding="utf-8"?>
<!-- Generator: Adobe Illustrator 24.1.2, SVG Export Plug-In . SVG Version: 6.00 Build 0)  -->
<svg version="1.1" id="Layer_1" xmlns="http://www.w3.org/2000/svg" xmlns:xlink="http://www.w3.org/1999/xlink" x="0px" y="0px"
	 viewBox="0 0 93 88" style="enable-background:new 0 0 93 88;" xml:space="preserve">
<style type="text/css">
	.st0{fill:#DDDDDF;}
	.st1{fill:none;stroke:#DDDDDF;stroke-width:4;}
	.st2{fill:none;stroke:#DDDDDF;stroke-width:3;}
</style>
<path class="st0" d="M62.2,27.2c-0.1,0.7,0.3,1.3,0.8,1.6c0.6,0.3,1.3,0.2,1.8-0.2c1.4-1.2,2.7-2.5,3.7-4.1c0.5-0.8,1-1.6,1.3-2.5
	c1.5-3.4,1.9-7.2,1.1-10.9c-0.2-0.9-0.5-1.8-0.8-2.7c-0.3-0.9-1.3-1.3-2.1-1c-0.9,0.3-1.3,1.3-1,2.1c0.3,0.7,0.5,1.5,0.7,2.2
	c0.6,3,0.3,6-0.9,8.8c-0.3,0.7-0.7,1.4-1.1,2c-0.8,1.3-1.8,2.4-3,3.3C62.4,26.4,62.2,26.8,62.2,27.2L62.2,27.2z"/>
<path class="st1" d="M79,2c-0.3,14.1-4.1,26.7-9.9,35.8C62.9,47.4,54.7,53,46,53s-16.9-5.6-23.1-15.2C17.1,28.7,13.4,16.1,13,2H79z"
	/>
<path class="st1" d="M78.5,9.5c5.7,0,11,2.5,11.5,9S82.3,40,68,40"/>
<path class="st1" d="M13.5,10c-5.7,0-11,2.5-11.5,9c-0.5,6.5,7.7,21.5,22,21.5"/>
<path class="st1" d="M52,54v18H40V54L52,54z"/>
<path class="st2" d="M58.5,79.5h-25v-7h25L58.5,79.5z"/>
<path class="st1" d="M62,86H30v-6h32L62,86z"/>
</svg>
